icons/plexis/48/timeshift.svg

<svg viewBox="0 0 48 48" xmlns="http://www.w3.org/2000/svg" xmlns:xlink="http://www.w3.org/1999/xlink">
  <linearGradient id="a" gradientTransform="matrix(0 -1 1 0 -.0000015 47.999998)" gradientUnits="userSpaceOnUse" x1="1" x2="47">
    <stop offset="0" stop-color="#ed4141"/>
    <stop offset="1" stop-color="#ef5353"/>
  </linearGradient>
  <path d="m47 24c0 22.703-.297 23-23 23-22.703 0-23-.297-23-23 0-22.703.297-23 23-23 22.703 0 23 .297 23 23z" fill="url(#a)"/>
  <path d="m25 10c-8.284 0-15 6.716-15 15 0 8.284 6.716 15 15 15 8.284 0 15-6.716 15-15 0-8.284-6.716-15-15-15zm0 2c7.18 0 13 5.82 13 13 0 7.18-5.82 13-13 13-6.03-.008-11.267-4.165-12.641-10.04l4.637-6.961h-4.357c1.734-5.362 6.725-8.996 12.361-9" opacity=".1"/>
  <path d="m9 24c0 8.284 6.716 15 15 15 .5-.625.5-1.292 0-2-7.18 0-13-5.82-13-13z" fill="#8d3a3a"/>
  <path d="m24 9a15 15 0 0 0-15 15h2a13 13 0 0 1 13-13 13 13 0 0 1  13 13 13 13 0 0 1-13 13v2a15 15 0 0 0 15-15 15 15 0 0 0-15-15" fill="#2d2d2d"/>
  <path d="m9.559 20a15 15 0 0 0-.559 4 15 15 0 0 0  .916 5.13l6.084-9.13z" fill="#2d2d2d"/>
</svg>

<svg xmlns="http://www.w3.org/2000/svg" viewBox="0 0 48 48">
 <defs>
  <linearGradient id="linearGradient3764" x1="1" x2="47" gradientUnits="userSpaceOnUse" gradientTransform="matrix(0,-1,1,0,-1.5e-6,47.999998)">
   <stop style="stop-color:#ed4141;stop-opacity:1"/>
   <stop offset="1" style="stop-color:#ef5353;stop-opacity:1"/>
  </linearGradient>
 </defs>
 <g>
  
  
  
 </g>
 <g>
  <path d="m 47,24 C 47,46.703 46.703,47 24,47 1.297,47 1,46.703 1,24 1,1.297 1.297,1 24,1 46.703,1 47,1.297 47,24 z" style="fill:url(#linearGradient3764);fill-opacity:1"/>
 </g>
 <g>
  
 </g>
 <path d="m 25 10 c -8.284 0 -15 6.716 -15 15 0 8.284 6.716 15 15 15 8.284 0 15 -6.716 15 -15 0 -8.284 -6.716 -15 -15 -15 z m 0 2 c 7.18 0 13 5.82 13 13 0 7.18 -5.82 13 -13 13 c -6.03 -0.008 -11.267 -4.165 -12.641 -10.04 l 4.637 -6.961 -4.357 0 c 1.734 -5.362 6.725 -8.996 12.361 -9" style="fill:#000;opacity:0.1;fill-opacity:1;stroke:none;fill-rule:nonzero"/>
 <g>
  <path d="m 9 24 c 0 8.284 6.716 15 15 15 0.5 -0.625 0.5 -1.292 0 -2 -7.18 0 -13 -5.82 -13 -13 z" style="fill:#8d3a3a;opacity:1;fill-opacity:1;stroke:none"/>
  <path d="M 24 9 A 15 15 0 0 0 9 24 l 2 0 A 13 13 0 0 1 24 11 13 13 0 0 1 37 24 13 13 0 0 1 24 37 l 0 2 A 15 15 0 0 0 39 24 15 15 0 0 0 24 9" style="fill:#2d2d2d;opacity:1;fill-opacity:1;stroke:none"/>
  <path d="M 9.559 20 A 15 15 0 0 0 9 24 15 15 0 0 0 9.916 29.13 L 16 20 9.559 20" style="fill:#2d2d2d;opacity:1;fill-opacity:1;stroke:none"/>
 </g>
</svg>
